X:68
T:Leitrim Quickstep, The
R:slip jig
H:See also #58 in D
B:CRE IV 35
Z:id:hn-slipjig-68
M:9/8
L:1/8
K:G
G2g dBG GFG | EFG ABG FED | G2g dBG GFG | EFG AGF G3 :|
|: AFD AFD DEF | GAB cdc BAG | AFD AFD DEF | GAB cAF G3:|
<end>
<start>
